X:1
T:Trust in the Lord
T:Trust in the Lord
T:Wendell Phillips Loveless
T:Thomas Obediah Chisholm, 1937
T:© 1937, renewed 1965, Hope Publishing Company Courtesy of the Cyber Hymnal™
T:© 1937, renewed 1965, Hope Publishing Company Courtesy of the Cyber Hymnal™
C:Wendell Phillips Loveless
Z:© 1937, renewed 1965, Hope Publishing Company
Z:Courtesy of the Cyber Hymnal™
%%score ( 1 2 ) ( 3 4 )
L:1/8
Q:1/4=140
M:6/4
K:Eb
V:1 treble 
V:2 treble 
V:3 bass 
V:4 bass 
V:1
 [EG]2 [EG]2 [EG]2 [EG]4 [EG]2 | [EA]4 [EA]2 (G4 F2) | [EB]2 [EG]2 E2 [DF]2 [CE]2 [DF]2 | [EG]12 | %4
w: 1.~Trust in the Lord with|all your heart, *|This is God’s gra- cious com-|mand;|
w: 2.~Trust in the Lord who|rul- eth all, *|See- eth all things as they|are,|
w: 3.~Trust in the Lord— His|eye will guide *|All thro’ your path- way a-|head,|
 [EB]2 [EB]2 [EB]2 [=EB]4 [EG]2 | [=EG]4 [EB]2 [FA]6 | [E=A]2 [EG]2 [EF]2 [EF]2 [EA]2 [Ec]2 | %7
w: In all your ways ac-|know- ledge Him,|So shall you dwell in the|
w: Be it a bird- ling|in its nest,|Or yon- der ut- ter- most|
w: He hath re- deemed and|He will keep,|Trust Him and be not a-|
 [DB]12 ||"^Refrain" [EG]2 [E^F]2 [EG]2 A4 [D=F]2 | [EB]4 [EB]2 [EG]6 | %10
w: land.|||
w: star.|Trust in the Lord, O|trou- bled soul,|
w: fraid.|||
 [GB]2 [FA]2 [EG]2 [DF]2 [CE]2 [DF]2 | [EG]6- [EG]4 [GB]2 | [Ac]2 [Bd]2 [Ac]2 [GB]4 [EG]2 | %13
w: |||
w: Rest in the arms of His|care; * What-|ev- er your lot, it|
w: |||
 [FA]2 [GB]2 [FA]2 [EG]4 [EG]2 | [EG]2 [DF]2 [CE]2 [CE]2 [=B,D]2 [CE]2 | [DF]12 | %16
w: |||
w: mat- ter- eth not, For|no- thing can trou- ble you|there;|
w: |||
 [EG]2 [E^F]2 [EG]2 A4 [D=F]2 | [EB]4 E2 [E=B]6 | [Fc]2 [FA]2 C2 [DG]2 [DF]2 [DG]2 | E6- E4 z2 |] %20
w: ||||
w: Trust in the Lord, O|trou- bled soul,|No- thing can trou- ble you|there. *|
w: ||||
V:2
 x12 | x6 D6 | x4 E2 x6 | x12 | x12 | x12 | x12 | x12 || x6 (E2 D2) x2 | x12 | x12 | x12 | x12 | %13
 x12 | x12 | x12 | x6 (E2 D2) x2 | x4 E2 x6 | x4 C2 x6 | E6- E4 x2 |] %20
V:3
 [E,B,]2 [E,B,]2 [E,B,]2 [E,=B,]4 [C,C]2 | [F,C]4 [F,C]2 (B,4 A,2) | %2
w: ~ ~ ~ ~ ~|~ ~ ~ *|
 [E,G,]2 [E,B,]2 [E,G,]2 [B,,B,]2 [B,,B,]2 [B,,B,]2 | [E,B,]12 | %4
w: ~ ~ ~ ~ ~ ~|~|
 [E,G,]2 [E,G,]2 [_D,G,]2 [C,G,]4 [C,C]2 | [C,C]4 [C,C]2 [F,C]6 | %6
w: ~ ~ ~ ~ ~|~ ~ ~|
 [F,C]2 [F,B,]2 [F,=A,]2 [F,A,]2 [F,C]2 [F,A,]2 | [B,,B,]12 || %8
w: ~ ~ ~ ~ ~ ~|~|
 [E,B,]2 [E,=A,]2 [E,B,]2 [B,,B,]4 [B,,_A,]2 | [E,G,]4 [E,G,]2 [C,C]6 | %10
w: ~ ~ ~ ~ ~|~ ~ ~|
 [F,C]2 [F,C]2 [F,C]2 B,2 B,2 [B,,B,]2 | B,2 D2 C2 [E,B,]4 [E,E]2 | %12
w: ~ ~ ~ ~ ~ ~|care, of His~care, * *|
 [A,E]2 [A,E]2 [A,E]2 [E,E]4 [E,B,]2 | [B,,B,]2 [B,,B,]2 [=B,,D]2 [C,C]4 (C_B,) | %14
w: ||
 [F,=A,]2 [F,A,]2 [F,A,]2 [F,A,]2 F,2 [F,A,]2 | (B,6 A,6) | %16
w: ||
 [E,B,]2 [E,=A,]2 [E,B,]2 [B,,B,]4 [B,,_A,]2 | [E,G,]4 [G,B,]2 [^F,__B,]6 | %18
w: ||
 [F,A,]2 [F,C]2 [F,A,]2 [B,,B,]2 [B,,A,]2 [B,,B,]2 | [E,G,]6- [E,G,]4 z2 |] %20
w: ||
V:4
 x12 | x6 B,,6 | x12 | x12 | x12 | x12 | x12 | x12 || x12 | x12 | x6 B,2 B,2 x2 | E,6- x6 | x12 | %13
 x10 C,2 | x8 F,2 x2 | B,,12 | x12 | x12 | x12 | x12 |] %20

